X:1
%
T:Jack Crumpe
M:C|
L:1/8
N:No key sig. in original ms.
S:James Goodman music manuscript collection (mid-19th cent., County Cork, p. 69)
F:http://goodman.itma.ie/volume-one#?c=0&m=0&s=0&cv=72&z=652.5894%2C1971.4981%2C5504.876%2C3334.3488
Z:AK/Fiddler's Companion
K:G
BcBA GAGE|DGGE DGGA|BcBA G2 Bd|dBGB A2G2:|
|:dBGB AGED|dBGB A2G2|dBGB AAEA|DdBG A2G2:|

